!!!!SEGMENT: pl-kozmzk--mzk-m-33--003_szymanowska-maria--ah-si-pouvez-ramener-mon-amante.krn
!!!cenid: 18xx:2738
!!!COM: Szymanowska, Maria
!!!COM-rismid: pe140138
!!!CDT: 1789/12/14-1831/07/25
!!!CNT: Polish
!!!OTL: Ah si pouvez ramener mon Amante
!!!PDT:
!!!AGN: Secular
!!!SMS-siglum: PL-KOZmzk
!!!SMS-shelfmark: mzk/m/33
!!!SMS-shelfwork: 003 W
!!!SMS-variant:
!!!SMS-altvar:
!!!NIFC-rismid: 1001082118
!!!URL-scan: https://repozytorium.nifc.pl/islandora/object/pl-kozmzk%3A6878/datastream/PDF/view
!!!ONB-nifc: UWAGA: „Six Romances” M. Szymanowskiej na str. 63-70
!!!OMD: Plainlif
!!!AIN: 1 empty 1 piano 1 vox
!!!key:
**kern	**kern	**dynam	**kern	**text
*part3	*part2	*part2	*part1	*part1
*staff3	*staff2	*	*staff1	*staff1
*Iempty	*Ipiano	*	*Ivox	*
*	*I"Pianoforte	*	*I"Chant	*
*clefF4	*clefG2	*	*clefG2	*
*k[b-e-a-d-]	*k[b-e-a-d-]	*	*k[b-e-a-d-]	*
*f:	*f:	*	*f:	*
*M3/4	*M3/4	*	*M3/4	*
*>[A,A1,A,A1,A,A2]	*>[A,A1,A,A1,A,A2]	*	*>[A,A1,A,A1,A,A2]	*
=1	=1	=1	=1	=1
*>A	*>A	*	*>A	*
!LO:TX:a:t=[segno]	!LO:TX:a:t=[segno]	!	!	!
!LO:TX:t=P:problem=mixed beam	!LO:TX:b:t=sempre	!	!LO:TX:a:t=[segno]	!
8.FF/L	16r	.	4f/	Ah!
.	16A-/KL	.	.	.
.	8f/J	.	.	.
16F\Jk	.	.	.	.
!LO:TX:t=P:problem=mixed beam	!	!	!	!
8.FF/L	16r	.	4a-/	si
.	16A-/KL	.	.	.
.	8f/J	p	.	.
16F\Jk	.	.	.	.
!LO:TX:t=P:problem=mixed beam	!	!	!	!
8.FF/L	16r	.	4bn/	pou-
.	16A-/KL	.	.	.
.	8f/J	.	.	.
16F\Jk	.	.	.	.
=2	=2	=2	=2	=2
!LO:TX:t=P:problem=mixed beam	!	!	!	!
8.FF/L	16r	.	4cc\	-vez
.	16A-/KL	.	.	.
.	8f/J	.	.	.
16F\Jk	.	.	.	.
!LO:TX:t=P:problem=mixed beam	!	!	!	!
8.FF/L	16r	.	4r	.
.	16A-/KL	.	.	.
.	8f/J	.	.	.
16F\Jk	.	.	.	.
!LO:TX:t=P:problem=mixed beam	!	!	!	!
8.FF/L	16r	.	8a-/	ra-
.	16A-/KL	.	.	.
.	8f/J	.	8a-/	-me-
16F\Jk	.	.	.	.
=3	=3	=3	=3	=3
8.CC/L	16r	.	(4.g/	-ner
.	16B-/KL	.	.	.
.	8g/J	.	.	.
16C/Jk	.	.	.	.
!LO:TX:t=P:problem=mixed beam	!	!	!	!
8.EEn/L	16r	.	.	.
.	16B-/KL	.	.	.
.	8g/J	.	8b-X\)	.
16En\Jk	.	.	.	.
8.CC/L	16r	.	8a-/	mon
.	16B-/KL	.	.	.
.	8g/J	.	8g/	A-
16C/Jk	.	.	.	.
!!LO:LB:g=original
=4	=4	=4	=4	=4
!LO:TX:t=P:problem=mixed beam	!	!	!	!
8.FF/L	16r	.	2f/	-man-
.	16A-/KL	.	.	.
.	8f/J	.	.	.
16F\Jk	.	.	.	.
!LO:TX:t=P:problem=mixed beam	!	!	!	!
8.FF/L	16r	.	.	.
.	16A-/KL	.	.	.
.	8f/J	.	.	.
16F\Jk	.	.	.	.
!LO:TX:t=P:problem=mixed beam	!	!	!	!
8.FF/L	16r	.	4c/	-te,
.	16A-/KL	.	.	.
.	8f/J	.	.	.
16F\Jk	.	.	.	.
=5	=5	=5	=5	=5
!LO:TX:t=P:problem=mixed beam	!	!	!	!
8.FF/L	16r	.	4f/	voi-
.	16A-/KL	.	.	.
.	8f/J	.	.	.
16F\Jk	.	.	.	.
!LO:TX:t=P:problem=mixed beam	!	!	!	!
8.FF/L	16r	.	4a-/	-ler
.	16A-/KL	.	.	.
.	8f/J	.	.	.
16F\Jk	.	.	.	.
!LO:TX:t=P:problem=mixed beam	!	!	!	!
8.FF/L	16r	.	4bn/	ses
.	16A-/KL	.	.	.
.	8f/J	.	.	.
16F\Jk	.	.	.	.
=6	=6	=6	=6	=6
!LO:TX:t=P:problem=mixed beam	!	!	!	!
8.FF/L	16r	.	4cc\	pas
.	16A-/KL	.	.	.
.	8f/J	.	.	.
16F\Jk	.	.	.	.
!LO:TX:t=P:problem=mixed beam	!	!	!	!
8.FF/L	16r	.	4r	.
.	16A-/KL	.	.	.
.	8f/J	.	.	.
16F\Jk	.	.	.	.
!LO:TX:t=P:problem=mixed beam	!	!	!	!
8.FF/L	16r	.	4a-/	sur
.	16A-/KL	.	.	.
.	8f/J	.	.	.
16F\Jk	.	.	.	.
=7	=7	=7	=7	=7
!LO:TX:t=P:problem=mixed beam	!	!	!	!
8.EE-X/L	16r	.	4.g/	cet-
.	16B-/KL	.	.	.
.	8g/J	.	.	.
16E-\Jk	.	.	.	.
!LO:TX:t=P:problem=mixed beam	!	!	!	!
8.EE-/L	16r	.	.	.
.	16B-/KL	.	.	.
.	8g/J	.	8e-/	-te
16E-\Jk	.	.	.	.
!LO:TX:t=P:problem=mixed beam	!	!	!	!
8.EE-/L	16r	.	8f/	hau-
.	16B-/KL	.	.	.
.	8g/J	.	8g/	-te
16E-\Jk	.	.	.	.
!!LO:LB:g=original
=8	=8	=8	=8	=8
!LO:TX:t=P:problem=mixed beam	!	!	!	!
8.AA-/L	16r	.	4a-/	tour,
.	16c/KL	.	.	.
.	8a-/J	.	.	.
16A-\Jk	.	.	.	.
!LO:TX:t=P:problem=mixed beam	!	!	!	!
8.AA-/L	16r	.	4r	.
.	16c/KL	.	.	.
.	8a-/J	.	.	.
16A-\Jk	.	.	.	.
!LO:TX:t=P:problem=mixed beam	!	!	!	!
8.AA-/L	16r	.	4a-/	pro-
.	16c/KL	.	.	.
.	8a-/J	.	.	.
16A-\Jk	.	.	.	.
=9	=9	=9	=9	=9
8.CC/L	16r	.	(2g/	-fon-
.	16B-/KL	.	.	.
.	8g/J	.	.	.
16C/Jk	.	.	.	.
8.CC/L	16r	.	.	.
.	16B-/KL	.	.	.
.	8g/J	.	.	.
16C/Jk	.	.	.	.
8.CC/L	16r	.	8a-/)	.
.	16G/KL	.	.	.
.	8en/J	.	8g/	-de
16C/Jk	.	.	.	.
=10	=10	=10	=10	=10
!LO:TX:t=P:problem=mixed beam	!	!	!	!
8.FF/L	16r	.	4f/	nuit
.	16A-/KL	.	.	.
.	8f/J	.	.	.
16F\Jk	.	.	.	.
!LO:TX:t=P:problem=mixed beam	!	!	!	!
8.FF/L	16r	.	4r	.
.	16A-/KL	.	.	.
.	8f/J	.	.	.
16F\Jk	.	.	.	.
!LO:TX:t=P:problem=mixed beam	!	!	!	!
8.FF/L	16r	.	4f/	se-
.	16A-/KL	.	.	.
.	8f/J	.	.	.
16F\Jk	.	.	.	.
=11	=11	=11	=11	=11
8.CC/L	16r	.	4.en/	-roit
.	16G/KL	.	.	.
.	8en/J	.	.	.
16C/Jk	.	.	.	.
8.EEn/L	16r	.	.	.
.	16G/KL	.	.	.
.	8e/J	.	8c/	pour
16En/Jk	.	.	.	.
8.CC/L	16r	.	8d-/	moi
.	16G/KL	.	.	.
.	8e/J	.	8e/	bril-
16C/Jk	.	.	.	.
!!LO:LB:g=original
=12	=12	=12	=12	=12
!LO:TX:t=P:problem=mixed beam	!	!	!	!
8.FF/L	16r	.	8g/	-lan-
.	16A-/KL	.	.	.
.	8f/J	.	8f/	-te
16F\Jk	.	.	.	.
!LO:TX:t=P:problem=mixed beam	!	!	!	!
8.FF/L	16r	.	4r	.
.	16A-/KL	.	.	.
.	8f/J	.	.	.
16F\Jk	.	.	.	.
!LO:TX:t=P:problem=mixed beam	!	!	!	!
8.FF/L	16r	.	4r	.
.	16A-/KL	.	.	.
.	8f/J	.	.	.
16F\Jk	.	.	.	.
=13	=13	=13	=13	=13
!LO:TX:t=P:problem=mixed beam	!	!	!	!
8.FF/L	16r	.	4f/	bien
.	16A-/KL	.	.	.
.	8f/J	.	.	.
16F\Jk	.	.	.	.
!LO:TX:t=P:problem=mixed beam	!	!	!	!
8.FF/L	16r	.	4f/	plus
.	16A-/KL	.	.	.
.	8f/J	.	.	.
16F\Jk	.	.	.	.
!LO:TX:t=P:problem=mixed beam	!	!	!	!
8.FF/L	16r	.	4a-/	en-
.	16A-/KL	.	.	.
.	8f/J	.	.	.
16F\Jk	.	.	.	.
=14	=14	=14	=14	=14
!LO:TX:t=P:problem=mixed beam	!	!	!	!
8.FF/L	16r	.	2cc\	-co-
.	16A-/KL	.	.	.
.	8f/J	.	.	.
16F\Jk	.	.	.	.
!LO:TX:t=P:problem=mixed beam	!	!	!	!
8.FF/L	16r	.	.	.
.	16A-/KL	.	.	.
.	8f/J	.	.	.
16F\Jk	.	.	.	.
!LO:TX:t=P:problem=mixed beam	!	!	!	!
8.FF/L	16r	.	4a-/	-re
.	16A-/KL	.	.	.
.	8f/J	.	.	.
16F\Jk	.	.	.	.
=15	=15	=15	=15	=15
8.BBB-/L	16r	.	4g/	que
.	16B-/KL	.	.	.
.	8g/J	.	.	.
16BB-/Jk	.	.	.	.
8.BBB-/L	16r	.	8g/	beau
.	16B-/KL	.	.	.
.	8g/J	.	(>8dd-^\	ray-
16BB-/Jk	.	.	.	.
8.CC/L	16r	.	8cc\	-on
.	16G/KL	.	.	.
.	8en/J	.	8en/)	du
16C/Jk	.	.	.	.
!!LO:PB:g=original
=16	=16	=16	=16	=16
!LO:TX:t=P:problem=mixed beam	!	!	!	!
8.FF/L	16r	.	4f/	jour.
.	16A-/KL	.	.	.
.	8f/J	<	.	.
16F\Jk	.	.	.	.
!LO:TX:t=P:problem=mixed beam	!	!	!	!
8.FF/L	16r	.	4r	.
.	16c/KL	.	.	.
.	8a-/J	.	.	.
16F\Jk	.	.	.	.
!LO:TX:t=P:problem=mixed beam	!	!	!	!
8.FF/L	16r	.	4r	.
.	16f/KL	.	.	.
.	8cc/J	[	.	.
16F\Jk	.	.	.	.
=17	=17	=17	=17	=17
8.BBB-/L	16r	.	2.r	.
.	16d-/KL	>	.	.
.	8dd-/J	.	.	.
16BB-/Jk	.	.	.	.
8.CC/L	16r	.	.	.
.	16c/KL	.	.	.
.	8cc/J	.	.	.
16C/Jk	.	.	.	.
8.CC/L	16r	.	.	.
.	16G/KL	.	.	.
.	8en/J	]	.	.
16C/Jk	.	.	.	.
=18	=18	=18	=18	=18
!LO:TX:t=P:problem=mixed beam	!	!	!	!
8.FF/L	16r	.	2.r	.
.	16A-/KL	.	.	.
.	8f/J	<	.	.
16F\Jk	.	.	.	.
!LO:TX:t=P:problem=mixed beam	!	!	!	!
8.FF/L	16r	.	.	.
.	16c/KL	.	.	.
.	8a-/J	.	.	.
16F\Jk	.	.	.	.
!LO:TX:t=P:problem=mixed beam	!	!	!	!
8.FF/L	16r	.	.	.
.	16f/KL	.	.	.
.	8cc/J	[[	.	.
16F\Jk	.	.	.	.
!!LO:LB:g=original
=19	=19	=19	=19	=19
8.BBB-/L	16r	.	2.r	.
!	!LO:TX:t=P:problem=mixed beam	!	!	!
.	16d-/KL	>	.	.
.	8dd-\J	.	.	.
16BB-/Jk	.	.	.	.
8.CC/L	16r	.	.	.
.	16c/KL	.	.	.
.	8cc/J	.	.	.
16C/Jk	.	.	.	.
8.CC/L	16r	.	.	.
.	16G/KL	.	.	.
.	8en/J	]]	.	.
16C/Jk	.	.	.	.
=20	=20	=20	=20	=20
!LO:TX:t=P:problem=mixed beam	!	!	!	!
8.FF/L	16r	.	2.r	.
.	16A-/KL	.	.	.
.	8f/J	.	.	.
16F\Jk	.	.	.	.
!LO:TX:t=P:problem=mixed beam	!	!	!	!
8.FF/L	16r	.	.	.
.	16A-/KL	.	.	.
.	8f/J	.	.	.
16F\Jk	.	.	.	.
!LO:TX:t=P:problem=mixed beam	!	!	!	!
8.FF/L	16r	.	.	.
.	16c/KL	pp	.	.
.	8a-/J	.	.	.
16F\Jk	.	.	.	.
=21	=21	=21	=21	=21
!LO:TX:t=pour le 2 Couplet	!	!	!	!
*>A1	*>A1	*	*>A1	*
!	!	!	!LO:TX:t=[segno]	!
!LO:TX:t=P:problem=mixed beam	!	!	!LO:TX:t=P:problem=znak segno na kresce taktowej	!
!	!	!	!	!
8.FF/L	16r	.	2.r	.
.	16A-/KL	.	.	.
.	8f/J	.	.	.
16F\Jk	.	.	.	.
!LO:TX:t=P:problem=mixed beam	!	!	!	!
8.FF/L	16r	.	.	.
.	16A-/KL	.	.	.
.	8f/J	.	.	.
16F\Jk	.	.	.	.
!LO:TX:t=P:problem=mixed beam	!	!	!	!
8.FF/L	16r	.	.	.
.	16A-/KL	pp	.	.
!	!LO:TX:t=[segno]	!	!	!
!	!LO:TX:t=P:problem=znak segno na kresce taktowej	!	!	!
.	8f/J	.	.	.
!LO:TX:t=[segno]	!	!	!	!
!LO:TX:t=P:problem=znak segno na kresce taktowej	!	!	!	!
16F\Jk	.	.	.	.
=22||	=22||	=22||	=22||	=22||
!LO:TX:t=pour finir	!	!	!	!
*>A2	*>A2	*	*>A2	*
!	!	!	!	!
4FF;/	4f/ 4A-;/	.	2.r;	.
4r	4r	.	.	.
4r	4r	.	.	.
==	==	==	==	==
*-	*-	*-	*-	*-
!!!system-decoration: s1{(s2,s3)}
!!!RDF**kern: > = above
!!!RDF**kern: < = below
!!!ENC: Katarzyna Serwa
!!!END: 2021-07-28
